public/images/icons/visa.svg

<svg width="91" height="60" viewBox="0 0 91 60" fill="none" xmlns="http://www.w3.org/2000/svg">
<g clip-path="url(#clip0_43_1758)">
<path d="M0.5 7.5C0.5 3.35786 3.85786 0 8 0H83C87.1421 0 90.5 3.35786 90.5 7.5V52.5C90.5 56.6421 87.1421 60 83 60H8C3.85786 60 0.5 56.6421 0.5 52.5V7.5Z" fill="#0C1727"/>
<path d="M77.9561 18.8159H73.2412C71.8158 18.8159 70.7193 19.2545 70.0614 20.68L61.0702 41.1843H67.4298C67.4298 41.1843 68.5263 38.4431 68.7456 37.7852C69.4035 37.7852 75.6535 37.7852 76.5307 37.7852C76.75 38.5528 77.2982 41.0747 77.2982 41.0747H83L77.9561 18.8159ZM70.5 33.18C71.0482 31.8642 72.9123 26.93 72.9123 26.93C72.9123 27.0396 73.4605 25.6142 73.6798 24.8466L74.1184 26.8203C74.1184 26.8203 75.3246 32.1931 75.5439 33.2896H70.5V33.18Z" fill="#3362AB"/>
<path d="M61.5088 33.8377C61.5088 38.443 57.3421 41.5131 50.8728 41.5131C48.1316 41.5131 45.5 40.9649 44.0746 40.307L44.9518 35.2631L45.7193 35.5921C47.693 36.4693 49.0088 36.7982 51.4211 36.7982C53.1754 36.7982 55.0395 36.1403 55.0395 34.6052C55.0395 33.6184 54.2719 32.9605 51.8597 31.864C49.557 30.7675 46.4868 29.0131 46.4868 25.8333C46.4868 21.4473 50.7632 18.4868 56.7939 18.4868C59.0965 18.4868 61.0702 18.9254 62.2763 19.4737L61.3991 24.2982L60.9605 23.8596C59.864 23.421 58.4386 22.9824 56.3553 22.9824C54.0526 23.0921 52.9561 24.0789 52.9561 24.9561C52.9561 25.943 54.2719 26.7105 56.3553 27.6973C59.864 29.3421 61.5088 31.2061 61.5088 33.8377Z" fill="#3362AB"/>
<path d="M8 19.0353L8.10965 18.5967H17.5395C18.8553 18.5967 19.8421 19.0353 20.1711 20.4607L22.2544 30.3291C20.1711 25.066 15.3465 20.7897 8 19.0353Z" fill="#F9B50B"/>
<path d="M35.5219 18.8157L25.9825 41.0745H19.5132L14.0307 22.4341C17.9781 24.9561 21.2675 28.9034 22.4737 31.6447L23.1316 33.9473L29.0526 18.7061H35.5219V18.8157Z" fill="#3362AB"/>
<path d="M38.0439 18.7061H44.0746L40.2368 41.0745H34.2061L38.0439 18.7061Z" fill="#3362AB"/>
</g>
<defs>
<clipPath id="clip0_43_1758">
<rect width="90" height="60" fill="white" transform="translate(0.5)"/>
</clipPath>
</defs>
</svg>

<svg xmlns="http://www.w3.org/2000/svg" width="91" height="60" fill="none"><g clip-path="url(#a)"><path fill="#0C1727" d="M.5 7.5A7.5 7.5 0 0 1 8 0h75a7.5 7.5 0 0 1 7.5 7.5v45A7.5 7.5 0 0 1 83 60H8a7.5 7.5 0 0 1-7.5-7.5v-45Z"/><path fill="#3362AB" d="M77.956 18.816h-4.715c-1.425 0-2.522.439-3.18 1.864l-8.99 20.504h6.359s1.096-2.74 1.316-3.399h7.785c.219.768.767 3.29.767 3.29H83l-5.044-22.26ZM70.5 33.18c.548-1.316 2.412-6.25 2.412-6.25 0 .11.548-1.316.768-2.083l.438 1.973s1.207 5.373 1.426 6.47H70.5v-.11Zm-8.991.658c0 4.605-4.167 7.675-10.636 7.675-2.741 0-5.373-.548-6.798-1.206l.877-5.044.767.33c1.974.876 3.29 1.205 5.702 1.205 1.754 0 3.618-.658 3.618-2.193 0-.987-.767-1.644-3.18-2.741-2.302-1.097-5.372-2.85-5.372-6.03 0-4.387 4.276-7.347 10.307-7.347 2.303 0 4.276.438 5.482.987l-.877 4.824-.438-.438c-1.097-.439-2.522-.878-4.606-.878-2.302.11-3.399 1.097-3.399 1.974 0 .987 1.316 1.755 3.4 2.741 3.508 1.645 5.153 3.51 5.153 6.14Z"/><path fill="#F9B50B" d="m8 19.035.11-.438h9.43c1.315 0 2.302.438 2.631 1.864l2.083 9.868C20.171 25.066 15.346 20.79 8 19.035Z"/><path fill="#3362AB" d="m35.522 18.816-9.54 22.259h-6.469l-5.482-18.64c3.947 2.521 7.236 6.468 8.443 9.21l.658 2.302 5.92-15.24h6.47v.109Zm2.522-.11h6.03l-3.837 22.369h-6.03l3.837-22.369Z"/></g><defs><clipPath id="a"><path fill="#fff" d="M.5 0h90v60H.5z"/></clipPath></defs></svg>
